RestoDelMundo/Polonia/Otras Categorias/Ssa Gornik3.svg

<svg xmlns="http://www.w3.org/2000/svg" viewBox="0 0 612 792"><path fill="#fff" d="m306.576 679.552-169.56-466.416h339.12Z"/><path fill="#006cb7" d="M306.576 664.936 144.072 218.104H469.08Z"/><path fill="#ed1c24" d="M173.232 283.696 151.2 223.144h310.752l-22.032 60.552Z"/><path fill="#ffcf01" d="m306.576 112.696 10.44 34.488 36.072-.72-29.592 20.592 11.808 34.128-28.728-21.816-28.728 21.816 11.808-34.128-29.592-20.592 36.072.72Z"/><path fill="#ed1c24" d="m264.312 534.04-23.328-64.152h131.184L348.84 534.04Z"/><path fill="#fff" d="M183.888 229.048h35.208v9.72l-22.608 28.512h23.472v10.44h-38.232v-10.08l22.32-28.152h-20.16ZM250.344 269.728H236.16l-1.944 7.992h-12.744l15.12-48.672H250.2l15.12 48.672h-13.032zm-2.592-10.584-4.464-17.496-4.464 17.496zM269.352 229.048h23.328c3.888 0 6.84 1.152 8.928 3.528 2.088 2.304 3.168 5.184 3.168 8.64 0 2.808-.792 5.328-2.232 7.344-1.008 1.368-2.448 2.52-4.392 3.312 2.88.792 5.04 2.232 6.408 4.32 1.368 2.016 2.016 4.608 2.016 7.704 0 2.52-.432 4.752-1.441 6.84-.935 2.016-2.304 3.6-3.96 4.753-1.08.72-2.592 1.224-4.752 1.584-2.808.432-4.68.648-5.544.648h-21.528zm12.6 19.08h5.4c1.944 0 3.312-.36 4.032-1.152.792-.864 1.152-2.016 1.152-3.528 0-1.44-.36-2.52-1.152-3.313-.72-.792-2.088-1.224-3.96-1.224h-5.472zm0 19.152h6.336c2.16 0 3.672-.432 4.536-1.368s1.296-2.16 1.296-3.744q0-2.16-1.296-3.456c-.864-.864-2.376-1.296-4.608-1.296h-6.264zM313.2 277.72v-48.672h20.736c3.888 0 6.84.432 8.856 1.224s3.672 2.232 4.896 4.392c1.296 2.16 1.872 4.824 1.872 7.92 0 2.664-.432 5.04-1.44 6.984q-1.404 2.916-3.888 4.752c-1.08.792-2.52 1.44-4.392 1.944 1.512.576 2.592 1.224 3.24 1.8.504.36 1.152 1.224 2.016 2.52.864 1.368 1.44 2.304 1.728 3.024l6.048 14.112H338.76l-6.624-14.832c-.864-1.944-1.584-3.168-2.232-3.816-.936-.72-1.944-1.08-3.096-1.08h-1.08v19.728zm12.528-28.944h5.256c.576 0 1.656-.216 3.312-.648.792-.216 1.44-.72 2.016-1.512.504-.864.792-1.8.792-2.808q0-2.376-1.296-3.672c-.792-.792-2.376-1.224-4.608-1.224h-5.472zM355.824 229.048h35.208v9.72l-22.536 28.512h23.4v10.44h-38.232v-10.08l22.32-28.152h-20.16ZM397.44 229.048h33.408v10.44h-20.88v7.704h19.368v9.936h-19.368v9.576h21.456v11.016H397.44ZM296.424 494.512l10.152 10.008 10.152-10.008-6.336-6.48 11.304-11.016 12.024 12.456-2.232 20.232-10.08-10.368L311.4 509.2l13.176 12.888-4.752 4.824-13.248-13.032-13.248 13.032-4.752-4.824 13.248-12.888-10.152-9.864-6.336 6.552-11.232-11.016 17.352-17.856 11.304 11.016ZM306.576 283.696H173.232l67.752 186.192h65.592ZM306.576 534.04h-42.264l42.264 116.352Z"/><path fill="#006cb7" d="M306.576 299.68v30.096c-26.568 1.08-40.392 16.128-42.12 41.904-1.872 29.16 11.808 49.68 42.12 50.832v30.096c-49.104-.792-81.792-29.592-80.064-79.416 1.584-47.232 33.336-72.792 80.064-73.512"/><path fill="#fff" d="M306.576 299.68v30.096c15.48.648 32.832 7.848 40.608 21.96l26.352-23.688c-13.392-18.648-37.584-28.152-66.96-28.368M306.576 373.48v18.576h35.28c-.072 2.304-.288 4.32-.576 6.336-2.52 16.992-17.424 23.184-34.704 24.12v30.096c12.312.144 23.472-1.584 33.192-4.968 26.856-9.432 40.68-30.6 40.68-57.888V373.48z"/><path fill="#006cb7" d="M289.224 373.48h17.352v18.576h-17.352Z"/></svg>

<svg enable-background="new 0 0 612 792" viewBox="0 0 612 792" xmlns="http://www.w3.org/2000/svg"><path d="M 306.576 679.552 L 137.016 213.136 L 476.136 213.136 Z" fill="#fff"/><path d="M 306.576 664.936 L 144.072 218.104 L 469.08 218.104 Z" fill="#006cb7"/><path d="M 173.232 283.696 L 151.2 223.144 L 461.952 223.144 L 439.92 283.696 Z" fill="#ed1c24"/><path d="M 306.576 112.696 L 317.016 147.184 L 353.088 146.464 L 323.496 167.056 L 335.304 201.184 L 306.576 179.368 L 277.848 201.184 L 289.656 167.056 L 260.064 146.464 L 296.136 147.184 Z" fill="#ffcf01"/><path d="M 264.312 534.04 L 240.984 469.888 L 372.168 469.888 L 348.84 534.04 Z" fill="#ed1c24"/><path d="M 183.888 229.048 L 219.096 229.048 L 219.096 238.768 L 196.488 267.28 L 219.96 267.28 L 219.96 277.72 L 181.728 277.72 L 181.728 267.64 L 204.048 239.488 L 183.888 239.488 Z" fill="#fff"/><path d="M 250.344 269.728 H 236.16 l -1.944 7.992 h -12.744 l 15.12 -48.672 H 250.2 l 15.12 48.672 h -13.032 L 250.344 269.728 L 250.344 269.728 z M 247.752 259.144 l -4.464 -17.496 l -4.464 17.496 H 247.752 z" fill="#fff"/><path d="M 269.352 229.048 h 23.328 c 3.888 0 6.84 1.152 8.928 3.528 c 2.088 2.304 3.168 5.184 3.168 8.64 c 0 2.808 -.792 5.328 -2.232 7.344 c -1.008 1.368 -2.448 2.52 -4.392 3.312 c 2.88 .792 5.04 2.232 6.408 4.32 c 1.368 2.016 2.016 4.608 2.016 7.704 c 0 2.52 -.432 4.752 -1.441 6.84 c -.935 2.016 -2.304 3.6 -3.96 4.753 c -1.08 .72 -2.592 1.224 -4.752 1.584 c -2.808 .432 -4.68 .648 -5.544 .648 h -21.528 V 229.048 L 269.352 229.048 z M 281.952 248.128 h 5.4 c 1.944 0 3.312 -.36 4.032 -1.152 c .792 -.864 1.152 -2.016 1.152 -3.528 c 0 -1.44 -.36 -2.52 -1.152 -3.313 c -.72 -.792 -2.088 -1.224 -3.96 -1.224 h -5.472 V 248.128 L 281.952 248.128 z M 281.952 267.28 h 6.336 c 2.16 0 3.672 -.432 4.536 -1.368 c .864 -.936 1.296 -2.16 1.296 -3.744 c 0 -1.44 -.432 -2.592 -1.296 -3.456 c -.864 -.864 -2.376 -1.296 -4.608 -1.296 h -6.264 V 267.28 z" fill="#fff"/><path d="M 313.2 277.72 v -48.672 h 20.736 c 3.888 0 6.84 .432 8.856 1.224 c 2.016 .792 3.672 2.232 4.896 4.392 c 1.296 2.16 1.872 4.824 1.872 7.92 c 0 2.664 -.432 5.04 -1.44 6.984 c -.936 1.944 -2.232 3.528 -3.888 4.752 c -1.08 .792 -2.52 1.44 -4.392 1.944 c 1.512 .576 2.592 1.224 3.24 1.8 c .504 .36 1.152 1.224 2.016 2.52 c .864 1.368 1.44 2.304 1.728 3.024 l 6.048 14.112 H 338.76 l -6.624 -14.832 c -.864 -1.944 -1.584 -3.168 -2.232 -3.816 c -.936 -.72 -1.944 -1.08 -3.096 -1.08 h -1.08 v 19.728 H 313.2 L 313.2 277.72 z M 325.728 248.776 h 5.256 c .576 0 1.656 -.216 3.312 -.648 c .792 -.216 1.44 -.72 2.016 -1.512 c .504 -.864 .792 -1.8 .792 -2.808 c 0 -1.584 -.432 -2.808 -1.296 -3.672 c -.792 -.792 -2.376 -1.224 -4.608 -1.224 h -5.472 V 248.776 z" fill="#fff"/><path d="M 355.824 229.048 L 391.032 229.048 L 391.032 238.768 L 368.496 267.28 L 391.896 267.28 L 391.896 277.72 L 353.664 277.72 L 353.664 267.64 L 375.984 239.488 L 355.824 239.488 Z" fill="#fff"/><path d="M 397.44 229.048 L 430.848 229.048 L 430.848 239.488 L 409.968 239.488 L 409.968 247.192 L 429.336 247.192 L 429.336 257.128 L 409.968 257.128 L 409.968 266.704 L 431.424 266.704 L 431.424 277.72 L 397.44 277.72 Z" fill="#fff"/><path d="M 296.424 494.512 L 306.576 504.52 L 316.728 494.512 L 310.392 488.032 L 321.696 477.016 L 333.72 489.472 L 331.488 509.704 L 321.408 499.336 L 311.4 509.2 L 324.576 522.088 L 319.824 526.912 L 306.576 513.88 L 293.328 526.912 L 288.576 522.088 L 301.824 509.2 L 291.672 499.336 L 285.336 505.888 L 274.104 494.872 L 291.456 477.016 L 302.76 488.032 Z" fill="#fff"/><path d="M 306.576 283.696 L 173.232 283.696 L 240.984 469.888 L 306.576 469.888 Z" fill="#fff"/><path d="M 306.576 534.04 L 264.312 534.04 L 306.576 650.392 Z" fill="#fff"/><path d="M 306.576 299.68 v 30.096 c -26.568 1.08 -40.392 16.128 -42.12 41.904 c -1.872 29.16 11.808 49.68 42.12 50.832 v 30.096 c -49.104 -.792 -81.792 -29.592 -80.064 -79.416 C 228.096 325.96 259.848 300.4 306.576 299.68 z" fill="#006cb7"/><path d="M 306.576 299.68 v 30.096 c 15.48 .648 32.832 7.848 40.608 21.96 l 26.352 -23.688 C 360.144 309.4 335.952 299.896 306.576 299.68 z" fill="#fff"/><path d="M 306.576 373.48 v 18.576 h 35.28 c -.072 2.304 -.288 4.32 -.576 6.336 c -2.52 16.992 -17.424 23.184 -34.704 24.12 v 30.096 c 12.312 .144 23.472 -1.584 33.192 -4.968 c 26.856 -9.432 40.68 -30.6 40.68 -57.888 V 373.48 H 306.576 z" fill="#fff"/><path d="M 289.224 373.48 H 306.576 V 392.056 H 289.224 Z" fill="#006cb7"/></svg>
